X: 6
T: The Hag At The Churn
R: jig
M: 6/8
L: 1/8
K: Amix
|:e2d eAA|e2d eag|e2d eAA|Bcd Bcd|
ef/e/d eAA|ef/e/d eag|ef/e/d eAA|Bcd Bcd||
|:EAF G3|EAA Bcd|EAF G2D|B3 dBA|
EAF G3|EAA Bcd|cdB AGE|dBc dBA||


Tune 829	Setting 25102

